X: 23858
T: Liza Jane
R: polka
M: 2/4
K: Gmajor
|:G/A/|BB AG|Bd d2|e d2 B|d2d G/A/|
BB AG|Bd d2|B B2 A|G2G:|
|:e/f/|g g2 d|e2 d2|e d2 B|d2 z e/f/|
g g2 d|e2 d2|B/B/B BA|G3:|

